X:1
T:Where Are the Nine?
T:Where Are the Nine?
T:Philip Paul Bliss
T:Philip Paul Bliss, 1875
T:Public Domain Courtesy of the Cyber Hymnal™
C:Philip Paul Bliss
Z:Public Domain
Z:Courtesy of the Cyber Hymnal™
%%score ( 1 2 ) 3
L:1/8
Q:1/4=97
M:3/8
K:F
V:1 treble 
V:2 treble 
V:3 bass 
V:1
 F>FF | F[FG][FA] | [DG][CF][CE] | [CF]3 | [FA]>[FA][FA] | [FA][GB][Ac] | [GB][FA][EG] | [FA]3 | %8
w: 1.~Wand- ’ring a-|far from the|dwell- ings of|men,|Hear the sad|cry of the|lep- ers, the|ten;|
w: 2.~Loud- ly the|strang- er sang|praise to the|Lord,|Know- ing the|cure had been|wrought by His|word,|
w: 3.~“Who is this|Na- za- rene?”|Phar- i- sees|say;|“Is He the|Christ? Tell us|plain- ly, we|pray.”|
w: 4.~Je- sus on|tri- al to-|day we can|see,|Thou- sands de-|rid- ing- ly|ask, “Who is|He?”|
 [Ac]>[GB][FA] | [FA]>[CG][CF] | [DF][DB][_Ec] | [Fd]3 | [Fc]>[FB][FA] | [FA]>[CG][CF] | %14
w: “Je- sus have|mer- cy!” brings|heal- ing di-|vine,|One came to|wor- ship, but|
w: Grate- ful- ly|own- ing the|Heal- er di-|vine;|Je- sus says|ten- der- ly,|
w: Mul- ti- tudes|fol- low Him|seek- ing a|sign,|Show them His|might- y works—|
w: How they’re re-|ject- ing Him,|your Lord and|mine!|Bring in the|wit- ness- es—|
 [CG][CF][CE] | [CF]3 ||"^Refrain" [Fc]>[Fc][Fc] | [Fc]3 | [FA]>[FA][FA] | [FA]3 | [CF]>[CF][CF] | %21
w: where are the|nine?||||||
w: “Where are the|nine?”||||||
w: where are the|nine?||||||
w: where are the|nine?||||||
 [DG]2 !fermata![DG] | [CE]>"^riten."[CE][CE] | [CF]3 |] %24
w: |||
w: |||
w: |||
w: |||
V:2
 F>FF | F x2 | x3 | x3 | x3 | x3 | x3 | x3 | x3 | x3 | x3 | x3 | x3 | x3 | x3 | x3 || x3 | x3 | %18
 x3 | x3 | x3 | x3 | x3 | x3 |] %24
V:3
 [F,A,]>[F,A,][F,A,] | [F,A,][F,B,][F,C] | [B,,B,][C,A,][C,G,] | [F,A,]3 | [F,C]>[F,C][F,C] | %5
w: ~ ~ ~|~ ~ ~|~ ~ ~|~|~ ~ ~|
 [F,C][F,C][F,C] | [C,C][C,C][C,C] | [F,C]3 | [F,F]>[F,C][F,C] | [F,C]>[F,B,][F,A,] | %10
w: ~ ~ ~|~ ~ ~|~|~ ~ ~|~ ~ ~|
 [B,,B,][B,,B,][B,,B,] | [B,,B,]3 | [F,A,]>[F,D][F,C] | [F,C]>[F,B,][F,A,] | [C,B,][C,A,][C,G,] | %15
w: ~ ~ ~|~|~ ~ ~|~ ~ ~|~ ~ ~|
 [F,A,]3 || [F,A,]>[F,A,][F,A,] | [F,A,]3 | [F,C]>[F,C][F,C] | [F,C]3 | [A,,C]>[A,,C][A,,C] | %21
w: ~|Where are the|nine?|Where are the|nine?|Were there not|
 [B,,B,]2 !fermata![B,,B,] | [C,G,]>[C,A,][C,B,] | [F,A,]3 |] %24
w: ten cleansed?|Where are the|nine?|

